X:61
T: Der Wilddieb (Band 1), S. 181
N: P0836
O: Lothringen
S: PINCK, Louis: Verklingende Weisen, Bd 1, Metz 1928]
R: Jgerei, Wilderei]
M: 3/4
L: 1/8
K: G
D2 | G3FGB | A2G2A2 | BAG2
GA | B2A2B2 | c2B2c2 | d3edc | B2z2
GB | d2c2dc | B2A2Bd | c3cB2 | A2G2
GA | B2B2Ac | B2z2GB | d2d2cA | G4

